src/images/svg/symbols/eos_flag.svg

<svg width="32" height="32" viewBox="0 0 32 32" fill="none" xmlns="http://www.w3.org/2000/svg">
<path d="M0 16C0 7.16344 7.16344 0 16 0C24.8366 0 32 7.16344 32 16C32 24.8366 24.8366 32 16 32C7.16344 32 0 24.8366 0 16Z" fill="black"/>
<path d="M15.9999 6L11.3199 12.44L9.35986 21.96L15.9999 26L22.6399 21.96L20.6399 12.4L15.9999 6ZM10.4399 21.52L11.9199 14.28L15.2799 24.48L10.4399 21.52ZM12.3999 12.64L15.9999 7.68L19.5999 12.64L15.9999 23.52L12.3999 12.64ZM16.6799 24.48L20.0399 14.28L21.5199 21.52L16.6799 24.48Z" fill="white"/>
</svg>

<svg width="32" height="32" fill="none" xmlns="http://www.w3.org/2000/svg"><path d="M0 16C0 7.163 7.163 0 16 0s16 7.163 16 16-7.163 16-16 16S0 24.837 0 16Z" fill="#000"/><path d="m16 6-4.68 6.44-1.96 9.52L16 26l6.64-4.04-2-9.56L16 6Zm-5.56 15.52 1.48-7.24 3.36 10.2-4.84-2.96Zm1.96-8.88L16 7.68l3.6 4.96L16 23.52l-3.6-10.88Zm4.28 11.84 3.36-10.2 1.48 7.24-4.84 2.96Z" fill="#fff"/></svg>
